!!!COM: Music21
!!!OTL: Foliada de Combarro
!!!OMV: pezas_foliadas_foliada-de-combarro_foliada-de-combarro-partitura.musicxml
**kern
*I"Bagpipes
*I'Bag
*clefG^2
*k[]
*M3/4
=1
!LO:TX:a:t=Intro
!LO:TX:a:t=Prestissimo
*MM200
!LO:TX:a:t=[quarter]=200
4r
8ggL
8ffJ
8eeL
8ddJ
=
[2.cc
=
4cc]
8ggL
8ffJ
8eeL
8ddJ
=
2.cc
=
4b
8ffL
8eeJ
8ddL
8ccJ
=
8bL
8ccJ
8ddL
8eeJ
8ffL
8eeJ
=
4dd
8ggL
8aaJ
8ggL
8aaJ
=
8ggL
8aaJ
8ggL
8ffJ
8eeL
8ddJ
=
4cc
2r
!!linebreak:original
=
4r
8ggL
8ffJ
8eeL
8ddJ
!!linebreak:original
=
4cc
2r
=
4r
8ggL
8ffJ
8eeL
8ddJ
=
4b
2r
=
2.r
=
4r
8ggL
8aaJ
8ggL
8aaJ
=
8ggL
8aaJ
8ggL
8ffJ
8eeL
8ddJ
=
[2.ee
=
4ee]
2r
=||
2r
4gg
=
4cc
4cc
4cc
=
2cc
4ee
=
2gg
[4gg
=
2.gg_
!!linebreak:original
=
2gg]
4gg
!!linebreak:original
=
4aa
4gg
4ff
=
2ee
4ff
=
2aa
[4gg
=
2.gg_
=
2.gg]
=||
!LO:TX:a:t=Peza
4.aa
8gg
4ff
=
4gg
4aa
4bb
=
4.gg
8ff
4ee
=
4ff
4gg
4aa
=
4.ff
8ee
4dd
=
4.ff
8ee
4dd
=
2ee
[4ff
=
4ff]
2gg
!!linebreak:original
=||
!LO:TX:a:t=Peza
4.aa
8gg
4ff
=
4gg
4aa
4bb
=
4.gg
8ff
4ee
=
4ff
4gg
4aa
!!linebreak:original
=
4.ff
8ee
4dd
=||
4ff
4ee
4dd
=
[2.cc
=
4cc]
8ddL
8ccJ
8bL
8ccJ
=||
4.dd
8cc
4b
=
4dd
4cc
4b
=
2dd
[4cc
=
4cc]
8ddL
8ccJ
8bL
8ccJ
=
4.dd
8cc
4b
=
4dd
4cc
4b
!!linebreak:original
=
[2.cc
!!linebreak:original
=
4cc]
8ddL
8ccJ
8bL
8ccJ
=||
4.dd
8cc
4b
=
4dd
4cc
4b
=
2dd
[4cc
=
4cc]
8ddL
8ccJ
8bL
8ccJ
=
4.dd
8cc
4b
=
4ff
4ee
4dd
=
[2.ee
=
4ee]
2r
=||
4gg
4aa
4bb
=
[2.ccc
!!linebreak:original
=
4ccc]
2r
==
*-
